X: 128
%
U:~=!turn!
T: Cutting Ferns
C:
O:Scotland
B:Keith Norman MacDonald : "The Skye collection of the best reels & strathspeys extant" : 1887
Z:Ralph Palmer
R:Strathspey
M:C
L:1/8
K:A minor
B | A<A a2 {/^f}g<e {/f}g2 | {/^f}e>dB>A {/^F}G>AB>G | A<A a2 {/^f}g<e {/f}g2 | e>dB>g {/^c}B<A A::
g | e>dB>A {/^F}G>AB>G | e>dTB>A B2 B>g | e>d(TB>A) {/^F}G>AB>d | e>d{/^f}g>B {cB}A2 A :|


